X:1
%%scale .90
T:I'll Be Home For Christmas
C:/Kim Gannon and Walter Kent, 1943
M:4/4
L:1/4
K:D
%%titlefont Times-Bold 14
%%gchordfont Helvetica-Bold 12.0
%%partsfont Times-Roman 11.0
%%vocalfont Times-Bold 13.0
%%wordsfont Times-Roman 12.0
%%StrTabFont Times-Bold 14.0
%%stretchstaff yes
|"D"d3 c|"Bm7"e3 d|"A7"A2 A2-|A4|"D"B3 A|"B7"=c3 B|"Em"E4-|E3 z
w:I'll be home for Christ-mas._ You can plan on me;_
|E3 F|"A7"A3 G|"D"F2 A2|"Bm7"d3 c|"E7"e2 e2|c3 c|"Em7"B4-|"A7"B3 z
w:Please have snow and mis-tle-toe and pres-ents on the tree._
|"D"d3 c|"Bm7"e3 d|"A7"A2 A2-|A4|"D"B3 A|"B7"=c3 B|"Em"G4-|G4
w:Christ-mas Eve will find me_ Where the love light gleams;_
|e3 d|"Gm"e3 d|"D"A4|"B7"B3 B|"E7"e2 f2|"Em7"d2 "A7"e2|"D"d4|d z z2||
w:I'll be home for Christ-mas If on-ly in my dreams._
